X: 19
T: Missa Dio te salvi Gotterello / Sanctus
N: Derived from Mar1004d-Missa_Dio_te_salvi_Gotterello-Sanctus.krn
C: Johannes Martini
%%abc-version 2.0
%%abcx-abcm2ps-target-version 5.9.1 (29 Sep 2008)
%%abc-creator hum2abc beta
%%abcx-conversion-date 2019/02/17 07:19:41
%%abc-edited-by Jesse Rodin
%%abc-edited-by Chris Gage 01-27-2013
%%abcx-initial-encoding-date 2015/03/07/
%%humdrum-veritas 3712248947
%%humdrum-veritas-data 1581639453
%%linebreak <none>
%%barnumbers 0
L: 1/4
M: 4/2
Q: 1/2=120
%%staves [1 2 3 4]
V: 1 clef=treble
V: 2 clef=treble-8
V: 3 clef=treble-8
V: 4 clef=bass
K: C
[V:1] z8 | 
[V:2] z8 | 
[V:3] z8 | 
[V:4] A,4G,2E,2 | 
[V:1] A4G2E2 | 
[V:2] z8 | 
[V:3] z8 | 
[V:4] F,4E,4 | 
[V:1] F4E4 | 
[V:2] z8 | 
[V:3] A4G2E2 | 
[V:4] z2D,2E,2C,2 | 
[V:1] z2D2E2F2 | 
[V:2] z8 | 
[V:3] F4E2D2 | 
[V:4] D,2E,F,G,2F,2 | 
[V:1] G2FED4 | 
[V:2] z8 | 
[V:3] E2F2G4 | 
[V:4] E,2D,C,B,,4 | 
[V:1] C2D2E2G2 | 
[V:2] z8 | 
[V:3] A2GFE4 | 
[V:4] A,,2D,4C,2 | 
[V:1] F4E2A2- | 
[V:2] z8 | 
[V:3] D4z4 | 
[V:4] D,4C,2F,2- | 
[V:1] A2G2A4 | 
[V:2] z8 | 
[V:3] z2G2F2A2 | 
[V:4] F,2E,2D,2C,2 | 
[V:1] D8 | 
[V:2] z8 | 
[V:3] BAGFG4 | 
[V:4] D,C,B,,A,,B,,4 | 
[V:1] z2C2D2F2 | 
[V:2] z8 | 
[V:3] A4B2A2 | 
[V:4] A,,4G,,2D,2 | 
[V:1] E2G2F2ED | 
[V:2] z8 | 
[V:3] G3FD2F2 | 
[V:4] E,2C,2D,4 | 
[V:1] C2D4^C2 | 
[V:2] z8 | 
[V:3] E2D2E4 | 
[V:4] A,,2B,,2A,,4 | 
[V:1] D4z4 | 
[V:2] z2d4c2 | 
[V:3] D4z4 | 
[V:4] A,4z4 | 
[V:1] z8 | 
[V:2] A2B4A2- | 
[V:3] z8 | 
[V:4] D,4C,2A,,2 | 
[V:1] z8 | 
[V:2] A2G2A2GF | 
[V:3] z2d4c2 | 
[V:4] B,,4A,,3B,, | 
[V:1] z8 | 
[V:2] E2F4E2- | 
[V:3] A2B4A2- | 
[V:4] C,2D,4C,2 | 
[V:1] d4c2A2- | 
[V:2] E2D2E4 | 
[V:3] A2^G2A3B | 
[V:4] B,,4A,,4 | 
[V:1] A2B4A2- | 
[V:2] z8 | 
[V:3] c2d4c2 | 
[V:4] A,2G,4A,2 | 
[V:1] A2^G2A4 | 
[V:2] e8 | 
[V:3] B4A4 | 
[V:4] E,4A,,4 | 
[V:1] [M:3/1]z12 | 
[V:2] [M:3/1]c4d2e3fg2 | 
[V:3] [M:3/1]A4A2G4E2 | 
[V:4] [M:3/1]z12 | 
[V:1] A4A2G4E2 | 
[V:2] f2d4e3dB2 | 
[V:3] F4F2E6 | 
[V:4] z12 | 
[V:1] F4F2E4C2 | 
[V:2] A4F2G4A2 | 
[V:3] z4z2E4F2- | 
[V:4] D,4D,2C,4A,,2 | 
[V:1] D4B,2C3DE2 | 
[V:2] D6E6 | 
[V:3] F2G4A4z2 | 
[V:4] _B,,4B,,2A,,3B,,C,2 | 
[V:1] D2F3EE4D2 | 
[V:2] F4G2A4B2 | 
[V:3] A4G2E2F4 | 
[V:4] D,2A,,2C,4D,4 | 
[V:1] [M:4/2]E4z2E2 | 
[V:2] [M:4/2]c3ed2c2 | 
[V:3] [M:4/2]E4G2A2- | 
[V:4] [M:4/2]A,,2C,2B,,2A,,2 | 
[V:1] F2A4G2 | 
[V:2] d2A2B2c2 | 
[V:3] A2F2E4 | 
[V:4] D,4G,4 | 
[V:1] F2D2E4 | 
[V:2] d2d4^c2 | 
[V:3] D4z4 | 
[V:4] z2F,2G,2A,2 | 
[V:1] D2F3EG2- | 
[V:2] d4z4 | 
[V:3] D4F2E2 | 
[V:4] D,6C,2 | 
[V:1] GFEDC3D | 
[V:2] d4e2dc | 
[V:3] G4A4 | 
[V:4] B,,4A,,4 | 
[V:1] E2F4E2- | 
[V:2] B2A2B2c2- | 
[V:3] G2A2F2G2- | 
[V:4] z2D,4C,2- | 
[V:1] E2D4^C2 | 
[V:2] cBA3GE2 | 
[V:3] G2F2E4 | 
[V:4] C,2D,2A,,4 | 
[V:1] D8 ||  
[V:2] F8 ||  
[V:3] D8 ||  
[V:4] D,8 ||  
[V:1]  [K:C] [K:clef=treble][M:4/2]z8 | 
[V:2]  [K:C] [K:clef=treble-8][M:4/2]z8 | 
[V:3]  [K:C] [K:clef=treble-8][M:4/2]A4G2A2- | 
[V:4]  [K:C] [K:clef=bass][M:4/2]z8 | 
[V:1] A4G2A2- | 
[V:2] z8 | 
[V:3] AGF2E2F2 | 
[V:4] z8 | 
[V:1] AGF2E2F2 | 
[V:2] z8 | 
[V:3] D4C2D2 | 
[V:4] z8 | 
[V:1] D4C2D2 | 
[V:2] z8 | 
[V:3] F2G2E2D2 | 
[V:4] z8 | 
[V:1] F2G2E2D2 | 
[V:2] z8 | 
[V:3] d2B2c2d2- | 
[V:4] z8 | 
[V:1] A2F2G2A2- | 
[V:2] z8 | 
[V:3] dcA2B2c2 | 
[V:4] z8 | 
[V:1] AGF2E4 | 
[V:2] z8 | 
[V:3] A2d4^c2 | 
[V:4] z8 | 
[V:1] D2z2F2E2 | 
[V:2] z8 | 
[V:3] d4A3G | 
[V:4] z8 | 
[V:1] D2G2F2E2 | 
[V:2] z8 | 
[V:3] F2E2D2G2 | 
[V:4] z8 | 
[V:1] A2G2F2_B2- | 
[V:2] z8 | 
[V:3] F2E2A2G2 | 
[V:4] z8 | 
[V:1] B2A4G2 | 
[V:2] z8 | 
[V:3] c4_B4 | 
[V:4] z8 | 
[V:1] A8- | 
[V:2] z2A2d2c2 | 
[V:3] A4z4 | 
[V:4] z8 | 
[V:1] A8- | 
[V:2] d2cBA2z2 | 
[V:3] z8 | 
[V:4] z2A,,2D,2C,2 | 
[V:1] A8- | 
[V:2] A2d2c2d2 | 
[V:3] z8 | 
[V:4] D,3C,/B,,/A,,2D,2 | 
[V:1] A8 | 
[V:2] e2f3ed2- | 
[V:3] z8 | 
[V:4] C,2D,2F,4 | 
[V:1] z8 | 
[V:2] d2^c2d4- | 
[V:3] z8 | 
[V:4] E,4D,2F,2- | 
[V:1] z8 | 
[V:2] d2f4e2- | 
[V:3] z8 | 
[V:4] F,E,D,C,D,2C,2 | 
[V:1] z8 | 
[V:2] edc2B4 | 
[V:3] z8 | 
[V:4] A,,2A,2G,2E,2 | 
[V:1] z8 | 
[V:2] A4z2e2 | 
[V:3] z8 | 
[V:4] F,2E,D,C,4 | 
[V:1] z8 | 
[V:2] d2B2c2BA | 
[V:3] z8 | 
[V:4] D,2E,3F,G,2- | 
[V:1] z8 | 
[V:2] G2A2c2B2- | 
[V:3] z8 | 
[V:4] G,E,F,2E,2D,2- | 
[V:1] z8 | 
[V:2] B2A4^G2 | 
[V:3] z8 | 
[V:4] D,2C,2B,,4 | 
[V:1] z2A,2C3D | 
[V:2] A8 | 
[V:3] z8 | 
[V:4] A,,4z2A,,2 | 
[V:1] E2F2G2A2- | 
[V:2] z2d2c2A2 | 
[V:3] z8 | 
[V:4] C,2D,2E,2F,2 | 
[V:1] A2^G2A2F2- | 
[V:2] B4A4 | 
[V:3] z8 | 
[V:4] E,4A,,2D,2- | 
[V:1] FGA2D2C2 | 
[V:2] d2c2B2e2- | 
[V:3] z8 | 
[V:4] D,E,F,2G,2A,2 | 
[V:1] D4E4 | 
[V:2] e2d4^c2 | 
[V:3] z8 | 
[V:4] B,4A,4 | 
[V:1] D8 ||  
[V:2] d8 ||  
[V:3] z8 ||  
[V:4] D,8 ||  
[V:1]  [K:C] [K:clef=treble][M:3/1]z12 | 
[V:2]  [K:C] [K:clef=treble-8][M:3/1]d8d4 | 
[V:3]  [K:C] [K:clef=treble-8][M:3/1]z12 | 
[V:4]  [K:C] [K:clef=bass][M:3/1]D,8F,4- | 
[V:1] z12 | 
[V:2] c8c4 | 
[V:3] z12 | 
[V:4] F,4E,8 | 
[V:1] z12 | 
[V:2] d6c2B4 | 
[V:3] z12 | 
[V:4] D,8D,4 | 
[V:1] z12 | 
[V:2] A4c6B2 | 
[V:3] z12 | 
[V:4] C,8C,4 | 
[V:1] F8D4 | 
[V:2] A6F2G4 | 
[V:3] d8d4 | 
[V:4] D,6C,2B,,4 | 
[V:1] E8E4 | 
[V:2] A6G2E4 | 
[V:3] c8c4 | 
[V:4] A,,12 | 
[V:1] F6E2D4 | 
[V:2] D4F4G4 | 
[V:3] d6c2B4 | 
[V:4] D,8G,,4 | 
[V:1] C8z4 | 
[V:2] E8F4 | 
[V:3] A8z4 | 
[V:4] A,,4C,4D,4 | 
[V:1] z12 | 
[V:2] G4A4B4 | 
[V:3] z12 | 
[V:4] E,4F,4G,4 | 
[V:1] z12 | 
[V:2] c4e6d2 | 
[V:3] z12 | 
[V:4] A,8G,4 | 
[V:1] z12 | 
[V:2] d8^c4 | 
[V:3] z12 | 
[V:4] F,4E,8 | 
[V:1] F6G2A4 | 
[V:2] d6c2A4 | 
[V:3] d8d4 | 
[V:4] D,8D,4 | 
[V:1] F4_B6A2 | 
[V:2] _B6A2F4- | 
[V:3] d8c4 | 
[V:4] D,8A,4 | 
[V:1] A8G4 | 
[V:2] F4G8 | 
[V:3] A4B8 | 
[V:4] F,4E,8 | 
[V:1] A8G4 | 
[V:2] E4F4G4 | 
[V:3] A4c4B4 | 
[V:4] A,,8E,4 | 
[V:1] F6EDE4 | 
[V:2] A4c8 | 
[V:3] A4G8 | 
[V:4] F,4C,8 | 
[V:1] F8G4 | 
[V:2] A8G4 | 
[V:3] F8z4 | 
[V:4] D,8E,4 | 
[V:1] A6G2F4 | 
[V:2] c6A2B4 | 
[V:3] z4z4F4 | 
[V:4] F,6C,2D,4 | 
[V:1] E6F2G4 | 
[V:2] c4z4c4 | 
[V:3] G8G4 | 
[V:4] C,6D,2E,4 | 
[V:1] F6G2A4 | 
[V:2] d8d4 | 
[V:3] A6G2F4 | 
[V:4] D,4F,6E,2 | 
[V:1] G8F4 | 
[V:2] e6d2c4 | 
[V:3] E8F4 | 
[V:4] C,8D,4 | 
[V:1] D8z4 | 
[V:2] B8c4 | 
[V:3] G6F2E4 | 
[V:4] G,,8G,4 | 
[V:1] A8G4 | 
[V:2] d6c2B4 | 
[V:3] D8z4 | 
[V:4] A,4F,4G,4 | 
[V:1] F6E2D4 | 
[V:2] A4F4G4 | 
[V:3] A8B4 | 
[V:4] D,8G,,4 | 
[V:1] C4E6D2 | 
[V:2] E8c4 | 
[V:3] A4G8 | 
[V:4] A,,4C,8 | 
[V:1] D6^CB,C4 | 
[V:2] B4A8 | 
[V:3] F4E8 | 
[V:4] D,4A,,8 | 
[V:1] D12 ||  
[V:2] A12 ||  
[V:3] D12 ||  
[V:4] D,12 ||  
[V:1]  [K:C] [K:clef=treble][M:2/1]D8- | 
[V:2]  [K:C] [K:clef=treble-8][M:2/1]z8 | 
[V:3]  [K:C] [K:clef=treble-8][M:2/1]z8 | 
[V:4]  [K:C] [K:clef=bass][M:2/1]z8 | 
[V:1] D4E4 | 
[V:2] z8 | 
[V:3] z8 | 
[V:4] z8 | 
[V:1] F6E2 | 
[V:2] z8 | 
[V:3] z8 | 
[V:4] D,8- | 
[V:1] D4C4 | 
[V:2] z8 | 
[V:3] z8 | 
[V:4] D,4E,4 | 
[V:1] D4A,4 | 
[V:2] z8 | 
[V:3] z8 | 
[V:4] F,6D,2- | 
[V:1] z4D4 | 
[V:2] z8 | 
[V:3] z8 | 
[V:4] D,2C,2D,2B,,2 | 
[V:1] E4F2A2- | 
[V:2] z8 | 
[V:3] z8 | 
[V:4] A,,4z4 | 
[V:1] A2GFGFED | 
[V:2] z8 | 
[V:3] z8 | 
[V:4] D,4E,4 | 
[V:1] C4F4 | 
[V:2] z8 | 
[V:3] z8 | 
[V:4] F,2A,4G,F, | 
[V:1] E8 | 
[V:2] z8 | 
[V:3] z8 | 
[V:4] G,F,E,D,C,4 | 
[V:1] D4A4- | 
[V:2] z8 | 
[V:3] z8 | 
[V:4] D,4F,4 | 
[V:1] A4G4 | 
[V:2] z8 | 
[V:3] z8 | 
[V:4] E,8 | 
[V:1] F6ED | 
[V:2] z8 | 
[V:3] z8 | 
[V:4] D,4A,4- | 
[V:1] C4B,4 | 
[V:2] z8 | 
[V:3] z8 | 
[V:4] A,4G,4 | 
[V:1] z2A,3B,CD | 
[V:2] z8 | 
[V:3] z8 | 
[V:4] F,6E,D, | 
[V:1] E2F2G4 | 
[V:2] z8 | 
[V:3] z8 | 
[V:4] C,4B,,4 | 
[V:1] A6GF | 
[V:2] z8 | 
[V:3] z8 | 
[V:4] z2A,,3B,,C,D, | 
[V:1] G2A2D2F2 | 
[V:2] z8 | 
[V:3] z8 | 
[V:4] E,2F,2G,4 | 
[V:1] E2DCB,2A,2- | 
[V:2] z8 | 
[V:3] z8 | 
[V:4] A,4G,2A,2 | 
[V:1] A,2D4^C2 | 
[V:2] z8 | 
[V:3] z8 | 
[V:4] D,2F,2E,4 | 
[V:1] D8- | 
[V:2] z8 | 
[V:3] z8 | 
[V:4] D,4z4 | 
[V:1] D8 | 
[V:2] z8 | 
[V:3] z8 | 
[V:4] F,4F,2G,2- | 
[V:1] z4F4 | 
[V:2] z8 | 
[V:3] z8 | 
[V:4] G,2E,2D,3E, | 
[V:1] F2G4FE | 
[V:2] z8 | 
[V:3] z8 | 
[V:4] F,2E,D,C,4 | 
[V:1] D3EF2ED | 
[V:2] z8 | 
[V:3] z8 | 
[V:4] B,,2D,4C,B,, | 
[V:1] C4B,2D2- | 
[V:2] z8 | 
[V:3] z8 | 
[V:4] A,,4z4 | 
[V:1] D2CB,A,2C2 | 
[V:2] z8 | 
[V:3] z8 | 
[V:4] D,4F,3E, | 
[V:1] D2E4D2 | 
[V:2] z8 | 
[V:3] z8 | 
[V:4] F,2G,2A,2_B,2- | 
[V:1] F2G2A4 | 
[V:2] z8 | 
[V:3] z8 | 
[V:4] B,2A,G,F,4 | 
[V:1] G2A2_B2A2- | 
[V:2] z8 | 
[V:3] z8 | 
[V:4] E,2F,2D,3C, | 
[V:1] AGF4E2 | 
[V:2] z8 | 
[V:3] z8 | 
[V:4] F,2A,2G,4 | 
[V:1] F8 | 
[V:2] z8 | 
[V:3] z8 | 
[V:4] F,8- | 
[V:1] z4C4 | 
[V:2] z8 | 
[V:3] z8 | 
[V:4] F,8 | 
[V:1] D2F2E4 | 
[V:2] z8 | 
[V:3] z8 | 
[V:4] z4C,4 | 
[V:1] D2A3GE2 | 
[V:2] z8 | 
[V:3] z8 | 
[V:4] D,2F,2E,4 | 
[V:1] F2EDC4 | 
[V:2] z8 | 
[V:3] z8 | 
[V:4] D,2A,3G,E,2 | 
[V:1] D4E4 | 
[V:2] z8 | 
[V:3] z8 | 
[V:4] F,2E,D,C,4 | 
[V:1] A,2A4G2 | 
[V:2] z8 | 
[V:3] z8 | 
[V:4] D,4E,4 | 
[V:1] A2F2E2G2- | 
[V:2] z8 | 
[V:3] z8 | 
[V:4] A,,2A,2G,2_B,2- | 
[V:1] GFEDF2E2- | 
[V:2] z8 | 
[V:3] z8 | 
[V:4] B,A,G,F,A,2G,2- | 
[V:1] EA,D4^C2 | 
[V:2] z8 | 
[V:3] z8 | 
[V:4] G,F,D,2E,4 | 
[V:1] D8 ||  
[V:2] z8 ||  
[V:3] z8 ||  
[V:4] D,8 ||  



